X:3
T:Bastienne
B:XVIIIeme
M:6/8
L:1/8
Q:C8=40
K:C
c2 e |: g3 afa | g3 f2 f | e2 e d2 d | e2 c c2 e |
g3 afa | g3 f2 f | e2 e d2 d |1 c3 c2 e :|2 c3 e3 |
|: e3 ede | f3 e2 f | g2 f e2 d | e2 c e3 |
e3 ede | f3 e2 f | g2 f e2 d |1 c3 e3 :|2 c3 ||
